X: 1
T: The Frasers of Oban
C: Drummond Cook
B: RSCDS 47-5
N: Tune for Vintage Simon
R: jig
Z: 2014 John Chambers <jc:trillian.mit.edu>
M: 6/8
L: 1/8
K: Bb
F |\
"Bb"B>cd B2F | D>EF F2B | d2B f2d | "Eb"b>ag "Bb"fed |\
"Cm"c>de c2G | E>FG "(G7)"G2c | "Cm"e2c "C7"g2B | "F7"A>Bc FGA ||
"Bb"B>cd B2F | D>EF F2B | d2B f2d | "Eb"b>ag "Bb"fed |\
"Cm"e>fg "F7"cde | "Bb"def "Gm"B2d | "Cm"c>de "F7"FGA | "Bb"B3 B2 |]
F |\
"Bb"D3 B,2D | F>DF B3 | D>FB BAB | "Eb"G>FE "Bb"DCB, |\
"Cm"E3 C2E | G>EG "(G7)"c2d | "Cm"e>dc "C7"dcB | "F7"AGF EDC ||
"Bb"D3 B,2D | F>DF B3 | D>FB BAB | d>cB "Bb"Bcd |\
"Eb"e>fg "Cm"cde | "Bb"def "Gm"B2d | "Cm"c>de "F7"FGA | "Bb"B3 B2 |]
%%center Book47/4705-Frasers_of_Oban-Bb-32-4.abc

%%sep 1 1 500
%%sep 1 1 500

